packages/kronos-fna-icons/src/bin.svg

<?xml version="1.0" encoding="UTF-8"?>
<svg width="15px" height="20px" viewBox="0 0 15 20" version="1.1" xmlns="http://www.w3.org/2000/svg" xmlns:xlink="http://www.w3.org/1999/xlink">
    <!-- Generator: Sketch 50.2 (55047) - http://www.bohemiancoding.com/sketch -->
    <title>bin</title>
    <desc>Created with Sketch.</desc>
    <defs></defs>
    <g id="bin" stroke="none" stroke-width="1" fill="none" fill-rule="evenodd">
        <path d="M1.25,6.25 L1.25,17.96875 C1.25,18.6132812 1.76923077,19.140625 2.40384615,19.140625 L12.7884615,19.140625 C13.4230769,19.140625 13.9423077,18.6132812 13.9423077,17.96875 L13.9423077,6.25 L1.25,6.25 L1.25,6.25 Z M4.71153846,16.796875 L3.55769231,16.796875 L3.55769231,8.59375 L4.71153846,8.59375 L4.71153846,16.796875 L4.71153846,16.796875 Z M7.01923077,16.796875 L5.86538462,16.796875 L5.86538462,8.59375 L7.01923077,8.59375 L7.01923077,16.796875 L7.01923077,16.796875 Z M9.32692308,16.796875 L8.17307692,16.796875 L8.17307692,8.59375 L9.32692308,8.59375 L9.32692308,16.796875 L9.32692308,16.796875 Z M11.6346154,16.796875 L10.4807692,16.796875 L10.4807692,8.59375 L11.6346154,8.59375 L11.6346154,16.796875 L11.6346154,16.796875 Z" id="Shape" fill="#000000"></path>
        <path d="M14.1346154,2.34375 L10.3846154,2.34375 L10.3846154,0.87890625 C10.3846154,0.395507812 9.99519231,0 9.51923077,0 L5.48076923,0 C5.00480769,0 4.61538462,0.395507812 4.61538462,0.87890625 L4.61538462,2.34375 L0.865384615,2.34375 C0.389423077,2.34375 0,2.73925781 0,3.22265625 L0,4.6875 L15,4.6875 L15,3.22265625 C15,2.73925781 14.6105769,2.34375 14.1346154,2.34375 L14.1346154,2.34375 Z M9.23076923,2.34375 L5.76923077,2.34375 L5.76923077,1.18652344 L9.23076923,1.18652344 L9.23076923,2.34375 L9.23076923,2.34375 Z" id="Shape" fill="#000000"></path>
    </g>
</svg>

<svg version="1.1" xmlns="http://www.w3.org/2000/svg" width="15" height="20" viewBox="0 0 15 20">
<title>bin</title>
<path d="M1.25 6.25v11.719c0 0.645 0.519 1.172 1.154 1.172h10.385c0.635 0 1.154-0.527 1.154-1.172v-11.719h-12.692zM4.712 16.797h-1.154v-8.203h1.154v8.203zM7.019 16.797h-1.154v-8.203h1.154v8.203zM9.327 16.797h-1.154v-8.203h1.154v8.203zM11.635 16.797h-1.154v-8.203h1.154v8.203z"></path>
<path d="M14.135 2.344h-3.75v-1.465c0-0.483-0.389-0.879-0.865-0.879h-4.038c-0.476 0-0.865 0.396-0.865 0.879v1.465h-3.75c-0.476 0-0.865 0.396-0.865 0.879v1.465h15v-1.465c0-0.483-0.389-0.879-0.865-0.879v0zM9.231 2.344h-3.462v-1.157h3.462v1.157z"></path>
</svg>
